X: 17
T: Le souvenir II
N: Derived from Tin3007-Le_souvenir_II.krn
C: Johannes Tinctoris
%%abc-version 2.0
%%abcx-abcm2ps-target-version 5.9.1 (29 Sep 2008)
%%abc-creator hum2abc beta
%%abcx-conversion-date 2019/02/17 07:34:55
%%abc-edited-by Jesse Rodin
%%abc-edited-by Chris Gage 01-29-2015
%%abcx-initial-encoding-date 2015/02/22/
%%humdrum-veritas 2028107706
%%humdrum-veritas-data 3829296499
%%linebreak <none>
%%barnumbers 0
L: 1/4
M: 2/1
Q: 1/2=120
%%staves [1 2 3 4]
V: 1 clef=treble
V: 2 clef=treble-8
V: 3 clef=treble-8
V: 4 clef=bass
K: C
[V:1] z8 | 
[V:2] f4f4 | 
[V:3] z4F4 | 
[V:4] F,4D,2A,2- | 
[V:1] z8 | 
[V:2] c3de4 | 
[V:3] F4C3D | 
[V:4] A,2G,F,G,F,E,D, | 
[V:1] z8 | 
[V:2] z2c2f2g2 | 
[V:3] E4z2C2 | 
[V:4] C,2G,2A,2C2- | 
[V:1] z8 | 
[V:2] a2g3ff2- | 
[V:3] F2G2A3G | 
[V:4] C2C,2F,4 | 
[V:1] z8 | 
[V:2] f2e2f2d2 | 
[V:3] G4z2F2- | 
[V:4] C,4F,3G, | 
[V:1] c4c4 | 
[V:2] c4z4 | 
[V:3] F2EDC4 | 
[V:4] A,3B,C4- | 
[V:1] G3AB4 | 
[V:2] z8 | 
[V:3] z2c2dcBA | 
[V:4] C2B,A,G,3A, | 
[V:1] z2G2c2d2 | 
[V:2] z8 | 
[V:3] G3EF2_B2 | 
[V:4] B,4z2G,2 | 
[V:1] e2d3cc2- | 
[V:2] z8 | 
[V:3] A2_B2c2_BA | 
[V:4] C2D2E3D | 
[V:1] c2B2c3B | 
[V:2] z8 | 
[V:3] GFEDC2F2 | 
[V:4] D4C4- | 
[V:1] G4A4 | 
[V:2] z2c2A4 | 
[V:3] E2C2D2F2 | 
[V:4] C2E3DD2- | 
[V:1] z8 | 
[V:2] G4z2F2 | 
[V:3] E4D3E | 
[V:4] D2^C2D4 | 
[V:1] z8 | 
[V:2] A2_B2c2d2 | 
[V:3] F4G2A2 | 
[V:4] D,4E,2F,2 | 
[V:1] z8 | 
[V:2] e2f4d2- | 
[V:3] B2c4BA | 
[V:4] G,2A,2F,4 | 
[V:1] z8 | 
[V:2] dcc4=B2 | 
[V:3] B2G4F2 | 
[V:4] G,2E,2D,4 | 
[V:1] z2G2E4 | 
[V:2] c8 | 
[V:3] G2ABc2de | 
[V:4] C,4z2C,2 | 
[V:1] D4z2C2 | 
[V:2] z8 | 
[V:3] f4e4 | 
[V:4] D,E,F,G,A,3G, | 
[V:1] E2F2G2A2 | 
[V:2] z8 | 
[V:3] c2d2e2c2 | 
[V:4] A,2D,2C,2F,2 | 
[V:1] B2c4A2- | 
[V:2] z8 | 
[V:3] d2A2c4 | 
[V:4] D,2F,3G,A,2 | 
[V:1] AGG4^F2 | 
[V:2] z8 | 
[V:3] d2B2A4 | 
[V:4] D,2G,2D,4 | 
[V:1] G8 | 
[V:2] e4e3f | 
[V:3] G2c4BA | 
[V:4] z2E,4C,2- | 
[V:1] z4c4 | 
[V:2] g4a4 | 
[V:3] G4F2A2- | 
[V:4] C,4F,4 | 
[V:1] d3cA4 | 
[V:2] z2f2e2f2 | 
[V:3] A2B2c3d | 
[V:4] D,4A,4 | 
[V:1] z2c2d3c | 
[V:2] g2a2f2_b2- | 
[V:3] e2f2d4- | 
[V:4] G,2F,2_B,4 | 
[V:1] d3AB4 | 
[V:2] baa4g2 | 
[V:3] d2c2B4 | 
[V:4] G,2A,2E,2G,2 | 
[V:1] z2c4BA | 
[V:2] a2gfe4 | 
[V:3] A4c4 | 
[V:4] F,2E,D,C,3D, | 
[V:1] G2c3de2- | 
[V:2] z2a4g2- | 
[V:3] c8 | 
[V:4] E,2F,4E,D, | 
[V:1] e2dcB3A | 
[V:2] g2fed4 | 
[V:3] c4G4 | 
[V:4] C,4z4 | 
[V:1] c4z2A2 | 
[V:2] z2c2e2f2 | 
[V:3] c4z4 | 
[V:4] C,4C2D2 | 
[V:1] B2c2A4 | 
[V:2] g2a4f2- | 
[V:3] z4D4 | 
[V:4] B,2A,2D4 | 
[V:1] d4G2c2- | 
[V:2] f2_b4a2- | 
[V:3] d6c2- | 
[V:4] D,4G,2A,2 | 
[V:1] cBc2d2B2 | 
[V:2] agfed2g2- | 
[V:3] c2BABcd2- | 
[V:4] F,4z2G,2 | 
[V:1] A4G3F | 
[V:2] g2^f2g2_b2- | 
[V:3] d2d2d4 | 
[V:4] D,4G,4- | 
[V:1] D4C4 | 
[V:2] b2a4g2- | 
[V:3] z8 | 
[V:4] G,2D,2F,2E,D, | 
[V:1] z2c4BA | 
[V:2] gfedc2f2- | 
[V:3] c4A2c2- | 
[V:4] C,4F,2A,2 | 
[V:1] G4A4 | 
[V:2] f2e2f4 | 
[V:3] c2B2c4 | 
[V:4] G,4F,3E, | 
[V:1] B2c2d2e2- | 
[V:2] z8 | 
[V:3] d2e2f2e2 | 
[V:4] D,2C,2z2C2- | 
[V:1] e2c4f2- | 
[V:2] e4c4 | 
[V:3] c4f4 | 
[V:4] CB,A,3G,F,2- | 
[V:1] f2e3dcB | 
[V:2] f2g6 | 
[V:3] d2e2c4 | 
[V:4] F,E,C,3D,E,2 | 
[V:1] A2d4^c2 | 
[V:2] f2a3ga2 | 
[V:3] d4e4 | 
[V:4] F,2D,2A,4 | 
[V:1] d2f4e2- | 
[V:2] f3ga4 | 
[V:3] d2cBA4 | 
[V:4] D,4C4 | 
[V:1] e2d3cBA | 
[V:2] z2d4g2- | 
[V:3] G3AB3c | 
[V:4] B,4G,4 | 
[V:1] G2c4B2 | 
[V:2] g4g4 | 
[V:3] d2e2d4 | 
[V:4] C,4G,4 | 
[V:1] c8- | 
[V:2] e2a4gf | 
[V:3] c8- | 
[V:4] C,2F,3E,F,G, | 
[V:1] c8- | 
[V:2] e8- | 
[V:3] c8- | 
[V:4] A,2G,F,G,F,E,D, | 
[V:1] c8 |]  
[V:2] e8 |]  
[V:3] c8 |]  
[V:4] C,8 |]  



